X: 12986
T: Fiery Clockface, The
R: jig
M: 6/8
K: Gmajor
f|:g2g G2A|B2c d2e|=f2=f =F2G|A2B c2f|
g2g G2A|B2c d2d|efg a2f|1 g3g2f:|2 g3g2a||
|:b2b gab|c'2b a2g|f2e d2e|f2g a2^a|
b2b gab|c'2b a2g|fed e2f|1 g3g2a:|2 g3g3||

